X:066
T:Hunting the Hare
M:4/4
L:1/8
K:G
g2 G2 B>c d2 | e2 a>g f>d e>f | g2 G2 B>c d2 | 
e2 a>f g4 | g2 G2 B>c d2 | e2 a>g f>d e>f | 
g2 G2 B>c d2 | e2 a>f g3 || 
a | b>a g>a b>a g>a | b>a b>a b>a g2 | 
a2 f>g a2 f>g | c'2 b2 a2 (3def | g2 G2 B>c d2 | 
e2 a>g f>d e>f | g2 G2 B>c d2 | e2 a>f g4 || 

